X:24
T:Planxty Browne
Z: id:dc-setdance-21
M:6/8
L:1/8
K:G Major
g|dBG GAB|E2E E2c|AFD DEF|G2G G2g|!
dBG Bcd|E2E E2c|AFD DEF|G2G G2:|!
g/a/|bgb afd|efg gfe|dBg dBG|AFD D2g/a/|!
bgb afd|efg gfe|faf ge^c|d2d de=f|!
ece dBd|cac BgB|Ace dBG|FAF DEF|!
GAB EFG|ABc def|gdB cAF|G3 G2|]!

